dist/assets/images/index/list-6.svg

<svg width="53" height="53" viewBox="0 0 53 53" fill="none" xmlns="http://www.w3.org/2000/svg">
<circle cx="26.5" cy="26.5" r="26.5" fill="white"/>
<path d="M33.35 19.7499H29.6106C29.6079 21.4069 29.607 23.9018 29.6104 24.0752C29.622 24.6704 29.3567 25.2819 28.975 25.931C28.8454 26.1513 28.5 26.679 28.2027 27.129C28.0508 27.3591 27.9062 27.5764 27.7997 27.7362L27.6722 27.9274L27.6369 27.9802L27.6276 27.9941C26.3331 29.9937 25.75 31.5078 25.75 33.265V43.2491H37.25V33.265C37.25 31.3973 36.6507 29.843 35.3513 27.8846C35.3393 27.8664 35.2849 27.7871 35.2041 27.6693C34.8933 27.2159 34.1915 26.1924 34.0052 25.8873C33.6186 25.2538 33.35 24.6584 33.35 24.0645V19.7499ZM25.6336 43.2472C25.6335 43.2472 25.6338 43.2474 25.6345 43.2476L25.6336 43.2472Z" stroke="#DF0112" stroke-width="1.5"/>
<path d="M25.45 16.1504H20.5016C20.4982 17.7184 20.497 19.0334 20.5013 19.2552C20.5144 19.9413 20.2131 20.6662 19.7459 21.4743C19.5896 21.7448 19.1679 22.4006 18.8007 22.9661C18.6138 23.2538 18.4361 23.5258 18.3051 23.7258L18.1483 23.965L18.1049 24.031L18.0935 24.0484L18.0927 24.0495C16.489 26.5696 15.75 28.5038 15.75 30.7588V43.4449C15.7642 43.4479 15.7809 43.4499 15.8 43.4499H30.2C30.2191 43.4499 30.2358 43.4479 30.25 43.4449V30.7588C30.25 28.3666 29.4921 26.3824 27.8811 23.9119C27.8642 23.8861 27.792 23.7789 27.6861 23.6218C27.2972 23.0446 26.4536 21.7928 26.2281 21.4169C25.7554 20.6291 25.45 19.9231 25.45 19.2379V16.1504Z" fill="#F6F6F6" stroke="#DF0112" stroke-width="1.5"/>
<path d="M20.5185 10.2818L20.5185 10.2819L19.7685 10.2793L20.5185 10.2819L20.5185 10.282L20.5185 10.2822L20.5185 10.2832L20.5185 10.2872L20.5184 10.3029L20.5182 10.3644L20.5174 10.5992L20.5147 11.4482C20.513 11.9774 20.511 12.6467 20.5089 13.3704H25.4502V10.276C25.4502 10.1377 25.2366 9.75 24.5949 9.75H21.3781C20.7335 9.75 20.519 10.136 20.5185 10.2818Z" stroke="#0000FF" stroke-width="1.5"/>
</svg>

<svg width="53" height="53" fill="none" xmlns="http://www.w3.org/2000/svg"><circle cx="26.5" cy="26.5" r="26.5" fill="#fff"/><path d="M33.35 19.75h-3.74a965.51 965.51 0 000 4.325c.012.595-.253 1.207-.635 1.856-.13.22-.475.748-.772 1.198l-.403.607-.128.191-.035.053-.01.014c-1.294 2-1.877 3.514-1.877 5.271v9.984h11.5v-9.984c0-1.868-.6-3.422-1.899-5.38l-.147-.216c-.31-.453-1.013-1.477-1.199-1.782-.386-.633-.655-1.229-.655-1.823V19.75zm-7.716 23.497s0 0 0 0h0z" stroke="#DF0112" stroke-width="1.5"/><path d="M25.45 16.15h-4.948a379.591 379.591 0 000 3.105c.012.686-.289 1.411-.756 2.22-.156.27-.578.926-.945 1.491l-.496.76-.157.239-.043.066-.012.017v.002c-1.604 2.52-2.343 4.454-2.343 6.709v12.686c.014.003.03.005.05.005h14.4c.02 0 .036-.002.05-.005V30.759c0-2.392-.758-4.377-2.369-6.847l-.195-.29c-.389-.577-1.232-1.83-1.458-2.205-.473-.788-.778-1.494-.778-2.18V16.15z" fill="#F6F6F6" stroke="#DF0112" stroke-width="1.5"/><path d="M20.518 10.282h0l-.75-.003.75.003h0v.317l-.003.85-.006 1.921h4.941v-3.094c0-.138-.213-.526-.855-.526h-3.217c-.645 0-.859.386-.86.532z" stroke="#00F" stroke-width="1.5"/></svg>
